assets/icons/VKIcon.svg

<?xml version="1.0" encoding="UTF-8"?> <svg xmlns="http://www.w3.org/2000/svg" width="100" height="100" viewBox="0 0 100 100" fill="none"> <path d="M52.2328 65.1993C35.1498 65.1993 25.406 53.4878 25 34H33.5572C33.8382 48.3036 40.1466 54.3623 45.1435 55.6115V34H53.2013V46.336C58.1357 45.8051 63.3193 40.1836 65.0682 34H73.1259C71.783 41.6202 66.1615 47.2417 62.164 49.5528C66.1615 51.4266 72.564 56.3298 75 65.1993H66.1302C64.2252 59.2655 59.4786 54.6746 53.2013 54.05V65.1993H52.2328Z" fill="white"></path> <rect x="1" y="1" width="98" height="98" stroke="white" stroke-width="2"></rect> </svg>

<svg xmlns="http://www.w3.org/2000/svg" width="100" height="100" fill="none"><path d="M52.233 65.2C35.15 65.2 25.406 53.487 25 34h8.557c.281 14.304 6.59 20.362 11.587 21.611V34H53.2v12.336c4.935-.53 10.118-6.152 11.867-12.336h8.058c-1.343 7.62-6.965 13.242-10.962 15.553 3.998 1.874 10.4 6.777 12.836 15.646h-8.87c-1.905-5.933-6.651-10.524-12.929-11.149V65.2h-.968Z" fill="#fff"/><path stroke="#fff" stroke-width="2" d="M1 1h98v98H1z"/></svg>
